X:1
T:All I Need
T:Charles Price Jones, 1906
T:All I Need
T:Public Domain
T:Public Domain
C:Charles Price Jones, 1906
Z:Public Domain
%%score ( 1 2 ) ( 3 4 )
L:1/8
M:4/4
K:Eb
V:1 treble 
V:2 treble 
V:3 bass 
V:4 bass 
V:1
 [B,E]2 [B,E]2 [B,E]2 B,2 | [B,E]2 [DF]2 [EG]4 | [EG]2 [DF]2 [DF]4 | [DF]2 [DG]2 [B,E]4 | %4
w: 1.~Je- sus Christ is|to me, All|I need, all|I need, He|
w: 2.~Je- sus is my|in all, All|I need, all|I need, While|
w: 3.~He re- deemed me|He died, All|I need, all|I need, I|
w: 4.~Glo- ry, glo- ry|the Lamb, All|I need, all|I need, By|
 [B,E]2 [B,E]2 [B,E]2 B,2 | [B,E]2 [B,F]2 [EG]4 | [B,E]2 [B,E]2 [EG]2 [DF]2 | [B,E]6 z2 || %8
w: a- lone is all|plea, He is|all I need. *||
w: he keeps I can-|fall, He is|all I need. Wis-|dom|
w: with Him was cru-|fied, He is|all I need. *||
w: His Spir- it sealed|am, He is|all I need. *||
"^Refrain" [EB]2 [EB]2 [Ec]2 [Ec]2 | [EB]2 [EB]2 [EG]4 | [FA]2 [FA]2 [DF]2 [DF]2 | %11
w: |||
w: right- eous- ness and|pow’r, Ho- li-|ness for- ev- er-|
w: |||
w: |||
 [EG]2 (ED) [EB]4 | [EB]2 [EB]2 [Ec]2 [Ee]2 | [EB]2 [EB]2 [EG]4 | [B,E]2 [B,E]2 [EG]2 [DF]2 | %15
w: ||||
w: more, My * re-|ion full and sure,|He is all|I need. * *|
w: ||||
w: ||||
 [B,E]6 z2 |] %16
w: |
w: |
w: |
w: |
V:2
 x6 B,2 | x8 | x8 | x8 | x6 B,2 | x8 | x8 | x8 || x8 | x8 | x8 | x2 A2 x4 | x8 | x8 | x8 | x8 |] %16
w: made||||my||||||||||||
w: all||||not|||||||dempt-|||||
w: when||||ci-||||||||||||
w: to||||I||||||||||||
V:3
 [E,G,]2 [E,G,]2 [E,G,]2 [E,G,]2 | [E,G,]2 [E,A,]2 [E,B,]4 | [E,B,]2 [B,,A,]2 [B,,A,]4 | %3
 [B,,A,]2 [B,,B,]2 [E,G,]4 | [E,G,]2 [E,G,]2 [E,G,]2 [E,G,]2 | [E,G,]2 [E,A,]2 [E,B,]4 | %6
 [E,G,]2 [E,G,]2 [B,,B,]2 [B,,A,]2 | [E,G,]6 z2 || [E,G,]2 [E,G,]2 [A,,A,]2 (A,,C,) | %9
 [E,G,]2 [E,G,]2 [E,B,]4 | [B,,B,]2 [B,,B,]2 [B,,B,]2 [B,,B,]2 | [E,B,]2 [F,B,]2 [G,B,]4 | %12
 [G,B,]2 [E,G,]2 [A,,A,]2 [C,A,]2 | [E,G,]2 [E,G,]2 [E,B,]4 | [E,G,]2 [C,G,]2 [B,,B,]2 [B,,A,]2 | %15
 [E,G,]6 z2 |] %16
V:4
 x8 | x8 | x8 | x8 | x8 | x8 | x8 | x8 || x6 A,2 | x8 | x8 | x8 | x8 | x8 | x8 | x8 |] %16

